X: 7106
T: Christmas Eve
R: reel
M: 4/4
K: Gmajor
|:GE|D3E ~G3A|B2dB ABGA|BAGE DB,DE|GABG ABGE|
DB,DE ~G3A|B2dB ABGA|BAAB GE~E2|ABGE G2:|
|:GA|BA (3Bcd edeg|abge g2eg|a2ge ~g3e|dedB ABGA|
BA (3Bcd edeg|abge g2eg|abge d2BG|ABGE G2:|
|:dc|BG~G2 dG (3Bcd|eg~g2 egdc|BG~G2 DGBG|EAAG EAAc|
BG~G2 dG (3Bcd|eg~g2 egdg|bgag eddB|ABGE G2:|

